src/assets/img/apple-pattern.svg

<svg width="1600" height="85" viewBox="0 0 1600 85" fill="none" xmlns="http://www.w3.org/2000/svg">
<path d="M247 0H-122V85H247V0Z" fill="#F7C4BA"/>
<path d="M18.149 33.5083H13.2191L12.5391 13.541H18.8291L18.149 33.5083Z" fill="#231F20"/>
<path d="M45.2388 48.3371C45.2388 35.7288 37.3287 25.5029 27.5787 25.5029C24.4287 25.5029 21.4687 26.573 18.9187 28.4304C16.9787 29.8436 14.4088 29.8436 12.4688 28.4304C9.90875 26.5629 6.94871 25.5029 3.79871 25.5029C-5.95129 25.5029 -13.8613 35.7288 -13.8613 48.3371C-13.8613 54.8683 -11.7413 60.7535 -8.3313 64.9125C-3.7813 71.1006 5.26872 75.3101 15.6887 75.3101C26.1187 75.3101 35.1587 71.0905 39.7188 64.9125C43.1087 60.7535 45.2388 54.8683 45.2388 48.3371Z" fill="#E52226"/>
<path d="M111.809 33.5083H106.889L106.199 13.541H112.499L111.809 33.5083Z" fill="#231F20"/>
<path d="M138.899 48.3371C138.899 35.7288 130.989 25.5029 121.239 25.5029C118.089 25.5029 115.129 26.573 112.579 28.4304C110.639 29.8436 108.069 29.8436 106.129 28.4304C103.569 26.5629 100.609 25.5029 97.4589 25.5029C87.7089 25.5029 79.7988 35.7288 79.7988 48.3371C79.7988 54.8683 81.9289 60.7535 85.3289 64.9125C89.8789 71.1006 98.9289 75.3101 109.349 75.3101C119.779 75.3101 128.829 71.0905 133.379 64.9125C136.779 60.7535 138.899 54.8683 138.899 48.3371Z" fill="#E52226"/>
<path d="M205.479 33.5083H200.559L199.869 13.541H206.159L205.479 33.5083Z" fill="#231F20"/>
<path d="M232.569 48.3371C232.569 35.7288 224.659 25.5029 214.909 25.5029C211.759 25.5029 208.809 26.573 206.249 28.4304C204.309 29.8436 201.739 29.8436 199.799 28.4304C197.239 26.5629 194.279 25.5029 191.129 25.5029C181.379 25.5029 173.469 35.7288 173.469 48.3371C173.469 54.8683 175.589 60.7535 178.999 64.9125C183.549 71.1006 192.599 75.3101 203.019 75.3101C213.449 75.3101 222.489 71.0905 227.049 64.9125C230.439 60.7535 232.569 54.8683 232.569 48.3371Z" fill="#E52226"/>
<path d="M616 0H247V85H616V0Z" fill="#F7C4BA"/>
<path d="M293.479 33.5083H288.559L287.869 13.541H294.169L293.479 33.5083Z" fill="#231F20"/>
<path d="M320.569 48.3371C320.569 35.7288 312.659 25.5029 302.909 25.5029C299.759 25.5029 296.809 26.573 294.249 28.4304C292.309 29.8436 289.739 29.8436 287.799 28.4304C285.239 26.5629 282.279 25.5029 279.129 25.5029C269.379 25.5029 261.469 35.7288 261.469 48.3371C261.469 54.8683 263.589 60.7535 266.999 64.9125C271.549 71.1006 280.599 75.3101 291.019 75.3101C301.449 75.3101 310.489 71.0905 315.049 64.9125C318.449 60.7535 320.569 54.8683 320.569 48.3371Z" fill="#E52226"/>
<path d="M387.149 33.5083H382.219L381.539 13.541H387.829L387.149 33.5083Z" fill="#231F20"/>
<path d="M414.239 48.3371C414.239 35.7288 406.329 25.5029 396.579 25.5029C393.429 25.5029 390.469 26.573 387.919 28.4304C385.979 29.8436 383.409 29.8436 381.469 28.4304C378.909 26.5629 375.949 25.5029 372.799 25.5029C363.049 25.5029 355.139 35.7288 355.139 48.3371C355.139 54.8683 357.259 60.7535 360.669 64.9125C365.219 71.1006 374.269 75.3101 384.689 75.3101C395.119 75.3101 404.159 71.0905 408.719 64.9125C412.109 60.7535 414.239 54.8683 414.239 48.3371Z" fill="#E52226"/>
<path d="M480.809 33.5083H475.889L475.199 13.541H481.499L480.809 33.5083Z" fill="#231F20"/>
<path d="M507.899 48.3371C507.899 35.7288 499.989 25.5029 490.239 25.5029C487.089 25.5029 484.129 26.573 481.579 28.4304C479.639 29.8436 477.069 29.8436 475.129 28.4304C472.569 26.5629 469.609 25.5029 466.459 25.5029C456.709 25.5029 448.799 35.7288 448.799 48.3371C448.799 54.8683 450.929 60.7535 454.329 64.9125C458.879 71.1006 467.929 75.3101 478.349 75.3101C488.779 75.3101 497.829 71.0905 502.379 64.9125C505.779 60.7535 507.899 54.8683 507.899 48.3371Z" fill="#E52226"/>
<path d="M574.479 33.5083H569.559L568.869 13.541H575.159L574.479 33.5083Z" fill="#231F20"/>
<path d="M601.569 48.3371C601.569 35.7288 593.659 25.5029 583.909 25.5029C580.759 25.5029 577.809 26.573 575.249 28.4304C573.309 29.8436 570.739 29.8436 568.799 28.4304C566.239 26.5629 563.279 25.5029 560.129 25.5029C550.379 25.5029 542.469 35.7288 542.469 48.3371C542.469 54.8683 544.589 60.7535 547.999 64.9125C552.549 71.1006 561.599 75.3101 572.019 75.3101C582.449 75.3101 591.489 71.0905 596.049 64.9125C599.439 60.7535 601.569 54.8683 601.569 48.3371Z" fill="#E52226"/>
<path d="M985 0H616V85H985V0Z" fill="#F7C4BA"/>
<path d="M662.479 33.5083H657.559L656.869 13.541H663.169L662.479 33.5083Z" fill="#231F20"/>
<path d="M689.569 48.3371C689.569 35.7288 681.659 25.5029 671.909 25.5029C668.759 25.5029 665.809 26.573 663.249 28.4304C661.309 29.8436 658.739 29.8436 656.799 28.4304C654.239 26.5629 651.279 25.5029 648.129 25.5029C638.379 25.5029 630.469 35.7288 630.469 48.3371C630.469 54.8683 632.589 60.7535 635.999 64.9125C640.549 71.1006 649.599 75.3101 660.019 75.3101C670.449 75.3101 679.489 71.0905 684.049 64.9125C687.449 60.7535 689.569 54.8683 689.569 48.3371Z" fill="#E52226"/>
<path d="M756.149 33.5083H751.219L750.539 13.541H756.829L756.149 33.5083Z" fill="#231F20"/>
<path d="M783.239 48.3371C783.239 35.7288 775.329 25.5029 765.579 25.5029C762.429 25.5029 759.469 26.573 756.919 28.4304C754.979 29.8436 752.409 29.8436 750.469 28.4304C747.909 26.5629 744.949 25.5029 741.799 25.5029C732.049 25.5029 724.139 35.7288 724.139 48.3371C724.139 54.8683 726.259 60.7535 729.669 64.9125C734.219 71.1006 743.269 75.3101 753.689 75.3101C764.119 75.3101 773.159 71.0905 777.719 64.9125C781.109 60.7535 783.239 54.8683 783.239 48.3371Z" fill="#E52226"/>
<path d="M849.809 33.5083H844.889L844.199 13.541H850.499L849.809 33.5083Z" fill="#231F20"/>
<path d="M876.899 48.3371C876.899 35.7288 868.989 25.5029 859.239 25.5029C856.089 25.5029 853.129 26.573 850.579 28.4304C848.639 29.8436 846.069 29.8436 844.129 28.4304C841.569 26.5629 838.609 25.5029 835.459 25.5029C825.709 25.5029 817.799 35.7288 817.799 48.3371C817.799 54.8683 819.929 60.7535 823.329 64.9125C827.879 71.1006 836.929 75.3101 847.349 75.3101C857.779 75.3101 866.829 71.0905 871.379 64.9125C874.779 60.7535 876.899 54.8683 876.899 48.3371Z" fill="#E52226"/>
<path d="M943.479 33.5083H938.559L937.869 13.541H944.159L943.479 33.5083Z" fill="#231F20"/>
<path d="M970.569 48.3371C970.569 35.7288 962.659 25.5029 952.909 25.5029C949.759 25.5029 946.809 26.573 944.249 28.4304C942.309 29.8436 939.739 29.8436 937.799 28.4304C935.239 26.5629 932.279 25.5029 929.129 25.5029C919.379 25.5029 911.469 35.7288 911.469 48.3371C911.469 54.8683 913.589 60.7535 916.999 64.9125C921.549 71.1006 930.599 75.3101 941.019 75.3101C951.449 75.3101 960.489 71.0905 965.049 64.9125C968.439 60.7535 970.569 54.8683 970.569 48.3371Z" fill="#E52226"/>
<path d="M1354 0H985V85H1354V0Z" fill="#F7C4BA"/>
<path d="M1031.48 33.5083H1026.56L1025.87 13.541H1032.17L1031.48 33.5083Z" fill="#231F20"/>
<path d="M1058.57 48.3371C1058.57 35.7288 1050.66 25.5029 1040.91 25.5029C1037.76 25.5029 1034.81 26.573 1032.25 28.4304C1030.31 29.8436 1027.74 29.8436 1025.8 28.4304C1023.24 26.5629 1020.28 25.5029 1017.13 25.5029C1007.38 25.5029 999.469 35.7288 999.469 48.3371C999.469 54.8683 1001.59 60.7535 1005 64.9125C1009.55 71.1006 1018.6 75.3101 1029.02 75.3101C1039.45 75.3101 1048.49 71.0905 1053.05 64.9125C1056.45 60.7535 1058.57 54.8683 1058.57 48.3371Z" fill="#E52226"/>
<path d="M1125.15 33.5083H1120.22L1119.54 13.541H1125.83L1125.15 33.5083Z" fill="#231F20"/>
<path d="M1152.24 48.3371C1152.24 35.7288 1144.33 25.5029 1134.58 25.5029C1131.43 25.5029 1128.47 26.573 1125.92 28.4304C1123.98 29.8436 1121.41 29.8436 1119.47 28.4304C1116.91 26.5629 1113.95 25.5029 1110.8 25.5029C1101.05 25.5029 1093.14 35.7288 1093.14 48.3371C1093.14 54.8683 1095.26 60.7535 1098.67 64.9125C1103.22 71.1006 1112.27 75.3101 1122.69 75.3101C1133.12 75.3101 1142.16 71.0905 1146.72 64.9125C1150.11 60.7535 1152.24 54.8683 1152.24 48.3371Z" fill="#E52226"/>
<path d="M1218.81 33.5083H1213.89L1213.2 13.541H1219.5L1218.81 33.5083Z" fill="#231F20"/>
<path d="M1245.9 48.3371C1245.9 35.7288 1237.99 25.5029 1228.24 25.5029C1225.09 25.5029 1222.13 26.573 1219.58 28.4304C1217.64 29.8436 1215.07 29.8436 1213.13 28.4304C1210.57 26.5629 1207.61 25.5029 1204.46 25.5029C1194.71 25.5029 1186.8 35.7288 1186.8 48.3371C1186.8 54.8683 1188.93 60.7535 1192.33 64.9125C1196.88 71.1006 1205.93 75.3101 1216.35 75.3101C1226.78 75.3101 1235.83 71.0905 1240.38 64.9125C1243.78 60.7535 1245.9 54.8683 1245.9 48.3371Z" fill="#E52226"/>
<path d="M1312.48 33.5083H1307.56L1306.87 13.541H1313.16L1312.48 33.5083Z" fill="#231F20"/>
<path d="M1339.57 48.3371C1339.57 35.7288 1331.66 25.5029 1321.91 25.5029C1318.76 25.5029 1315.81 26.573 1313.25 28.4304C1311.31 29.8436 1308.74 29.8436 1306.8 28.4304C1304.24 26.5629 1301.28 25.5029 1298.13 25.5029C1288.38 25.5029 1280.47 35.7288 1280.47 48.3371C1280.47 54.8683 1282.59 60.7535 1286 64.9125C1290.55 71.1006 1299.6 75.3101 1310.02 75.3101C1320.45 75.3101 1329.49 71.0905 1334.05 64.9125C1337.44 60.7535 1339.57 54.8683 1339.57 48.3371Z" fill="#E52226"/>
<path d="M1723 0H1354V85H1723V0Z" fill="#F7C4BA"/>
<path d="M1400.48 33.5083H1395.56L1394.87 13.541H1401.17L1400.48 33.5083Z" fill="#231F20"/>
<path d="M1427.57 48.3371C1427.57 35.7288 1419.66 25.5029 1409.91 25.5029C1406.76 25.5029 1403.81 26.573 1401.25 28.4304C1399.31 29.8436 1396.74 29.8436 1394.8 28.4304C1392.24 26.5629 1389.28 25.5029 1386.13 25.5029C1376.38 25.5029 1368.47 35.7288 1368.47 48.3371C1368.47 54.8683 1370.59 60.7535 1374 64.9125C1378.55 71.1006 1387.6 75.3101 1398.02 75.3101C1408.45 75.3101 1417.49 71.0905 1422.05 64.9125C1425.45 60.7535 1427.57 54.8683 1427.57 48.3371Z" fill="#E52226"/>
<path d="M1494.15 33.5083H1489.22L1488.54 13.541H1494.83L1494.15 33.5083Z" fill="#231F20"/>
<path d="M1521.24 48.3371C1521.24 35.7288 1513.33 25.5029 1503.58 25.5029C1500.43 25.5029 1497.47 26.573 1494.92 28.4304C1492.98 29.8436 1490.41 29.8436 1488.47 28.4304C1485.91 26.5629 1482.95 25.5029 1479.8 25.5029C1470.05 25.5029 1462.14 35.7288 1462.14 48.3371C1462.14 54.8683 1464.26 60.7535 1467.67 64.9125C1472.22 71.1006 1481.27 75.3101 1491.69 75.3101C1502.12 75.3101 1511.16 71.0905 1515.72 64.9125C1519.11 60.7535 1521.24 54.8683 1521.24 48.3371Z" fill="#E52226"/>
<path d="M1587.81 33.5083H1582.89L1582.2 13.541H1588.5L1587.81 33.5083Z" fill="#231F20"/>
<path d="M1614.9 48.3371C1614.9 35.7288 1606.99 25.5029 1597.24 25.5029C1594.09 25.5029 1591.13 26.573 1588.58 28.4304C1586.64 29.8436 1584.07 29.8436 1582.13 28.4304C1579.57 26.5629 1576.61 25.5029 1573.46 25.5029C1563.71 25.5029 1555.8 35.7288 1555.8 48.3371C1555.8 54.8683 1557.93 60.7535 1561.33 64.9125C1565.88 71.1006 1574.93 75.3101 1585.35 75.3101C1595.78 75.3101 1604.83 71.0905 1609.38 64.9125C1612.78 60.7535 1614.9 54.8683 1614.9 48.3371Z" fill="#E52226"/>
</svg>

<svg width="1600" height="85" fill="none" xmlns="http://www.w3.org/2000/svg"><path d="M247 0h-369v85h369V0z" fill="#F7C4BA"/><path d="M18.149 33.508h-4.93l-.68-19.967h6.29l-.68 19.967z" fill="#231F20"/><path d="M45.239 48.337c0-12.608-7.91-22.834-17.66-22.834-3.15 0-6.11 1.07-8.66 2.927a5.436 5.436 0 01-6.45 0c-2.56-1.867-5.52-2.927-8.67-2.927-9.75 0-17.66 10.226-17.66 22.834 0 6.531 2.12 12.416 5.53 16.575 4.55 6.189 13.6 10.398 24.02 10.398 10.43 0 19.47-4.22 24.03-10.398 3.39-4.159 5.52-10.044 5.52-16.575z" fill="#E52226"/><path d="M111.809 33.508h-4.92l-.69-19.967h6.3l-.69 19.967z" fill="#231F20"/><path d="M138.899 48.337c0-12.608-7.91-22.834-17.66-22.834-3.15 0-6.11 1.07-8.66 2.927a5.436 5.436 0 01-6.45 0c-2.56-1.867-5.52-2.927-8.67-2.927-9.75 0-17.66 10.226-17.66 22.834 0 6.531 2.13 12.416 5.53 16.575 4.55 6.189 13.6 10.398 24.02 10.398 10.43 0 19.48-4.22 24.03-10.398 3.4-4.159 5.52-10.044 5.52-16.575z" fill="#E52226"/><path d="M205.479 33.508h-4.92l-.69-19.967h6.29l-.68 19.967z" fill="#231F20"/><path d="M232.569 48.337c0-12.608-7.91-22.834-17.66-22.834-3.15 0-6.1 1.07-8.66 2.927a5.436 5.436 0 01-6.45 0c-2.56-1.867-5.52-2.927-8.67-2.927-9.75 0-17.66 10.226-17.66 22.834 0 6.531 2.12 12.416 5.53 16.575 4.55 6.189 13.6 10.398 24.02 10.398 10.43 0 19.47-4.22 24.03-10.398 3.39-4.159 5.52-10.044 5.52-16.575z" fill="#E52226"/><path d="M616 0H247v85h369V0z" fill="#F7C4BA"/><path d="M293.479 33.508h-4.92l-.69-19.967h6.3l-.69 19.967z" fill="#231F20"/><path d="M320.569 48.337c0-12.608-7.91-22.834-17.66-22.834-3.15 0-6.1 1.07-8.66 2.927a5.436 5.436 0 01-6.45 0c-2.56-1.867-5.52-2.927-8.67-2.927-9.75 0-17.66 10.226-17.66 22.834 0 6.531 2.12 12.416 5.53 16.575 4.55 6.189 13.6 10.398 24.02 10.398 10.43 0 19.47-4.22 24.03-10.398 3.4-4.159 5.52-10.044 5.52-16.575z" fill="#E52226"/><path d="M387.149 33.508h-4.93l-.68-19.967h6.29l-.68 19.967z" fill="#231F20"/><path d="M414.239 48.337c0-12.608-7.91-22.834-17.66-22.834-3.15 0-6.11 1.07-8.66 2.927a5.436 5.436 0 01-6.45 0c-2.56-1.867-5.52-2.927-8.67-2.927-9.75 0-17.66 10.226-17.66 22.834 0 6.531 2.12 12.416 5.53 16.575 4.55 6.189 13.6 10.398 24.02 10.398 10.43 0 19.47-4.22 24.03-10.398 3.39-4.159 5.52-10.044 5.52-16.575z" fill="#E52226"/><path d="M480.809 33.508h-4.92l-.69-19.967h6.3l-.69 19.967z" fill="#231F20"/><path d="M507.899 48.337c0-12.608-7.91-22.834-17.66-22.834-3.15 0-6.11 1.07-8.66 2.927a5.436 5.436 0 01-6.45 0c-2.56-1.867-5.52-2.927-8.67-2.927-9.75 0-17.66 10.226-17.66 22.834 0 6.531 2.13 12.416 5.53 16.575 4.55 6.189 13.6 10.398 24.02 10.398 10.43 0 19.48-4.22 24.03-10.398 3.4-4.159 5.52-10.044 5.52-16.575z" fill="#E52226"/><path d="M574.479 33.508h-4.92l-.69-19.967h6.29l-.68 19.967z" fill="#231F20"/><path d="M601.569 48.337c0-12.608-7.91-22.834-17.66-22.834-3.15 0-6.1 1.07-8.66 2.927a5.436 5.436 0 01-6.45 0c-2.56-1.867-5.52-2.927-8.67-2.927-9.75 0-17.66 10.226-17.66 22.834 0 6.531 2.12 12.416 5.53 16.575 4.55 6.189 13.6 10.398 24.02 10.398 10.43 0 19.47-4.22 24.03-10.398 3.39-4.159 5.52-10.044 5.52-16.575z" fill="#E52226"/><path d="M985 0H616v85h369V0z" fill="#F7C4BA"/><path d="M662.479 33.508h-4.92l-.69-19.967h6.3l-.69 19.967z" fill="#231F20"/><path d="M689.569 48.337c0-12.608-7.91-22.834-17.66-22.834-3.15 0-6.1 1.07-8.66 2.927a5.436 5.436 0 01-6.45 0c-2.56-1.867-5.52-2.927-8.67-2.927-9.75 0-17.66 10.226-17.66 22.834 0 6.531 2.12 12.416 5.53 16.575 4.55 6.189 13.6 10.398 24.02 10.398 10.43 0 19.47-4.22 24.03-10.398 3.4-4.159 5.52-10.044 5.52-16.575z" fill="#E52226"/><path d="M756.149 33.508h-4.93l-.68-19.967h6.29l-.68 19.967z" fill="#231F20"/><path d="M783.239 48.337c0-12.608-7.91-22.834-17.66-22.834-3.15 0-6.11 1.07-8.66 2.927a5.436 5.436 0 01-6.45 0c-2.56-1.867-5.52-2.927-8.67-2.927-9.75 0-17.66 10.226-17.66 22.834 0 6.531 2.12 12.416 5.53 16.575 4.55 6.189 13.6 10.398 24.02 10.398 10.43 0 19.47-4.22 24.03-10.398 3.39-4.159 5.52-10.044 5.52-16.575z" fill="#E52226"/><path d="M849.809 33.508h-4.92l-.69-19.967h6.3l-.69 19.967z" fill="#231F20"/><path d="M876.899 48.337c0-12.608-7.91-22.834-17.66-22.834-3.15 0-6.11 1.07-8.66 2.927a5.436 5.436 0 01-6.45 0c-2.56-1.867-5.52-2.927-8.67-2.927-9.75 0-17.66 10.226-17.66 22.834 0 6.531 2.13 12.416 5.53 16.575 4.55 6.189 13.6 10.398 24.02 10.398 10.43 0 19.48-4.22 24.03-10.398 3.4-4.159 5.52-10.044 5.52-16.575z" fill="#E52226"/><path d="M943.479 33.508h-4.92l-.69-19.967h6.29l-.68 19.967z" fill="#231F20"/><path d="M970.569 48.337c0-12.608-7.91-22.834-17.66-22.834-3.15 0-6.1 1.07-8.66 2.927a5.436 5.436 0 01-6.45 0c-2.56-1.867-5.52-2.927-8.67-2.927-9.75 0-17.66 10.226-17.66 22.834 0 6.531 2.12 12.416 5.53 16.575 4.55 6.189 13.6 10.398 24.02 10.398 10.43 0 19.47-4.22 24.03-10.398 3.39-4.159 5.52-10.044 5.52-16.575z" fill="#E52226"/><path d="M1354 0H985v85h369V0z" fill="#F7C4BA"/><path d="M1031.48 33.508h-4.92l-.69-19.967h6.3l-.69 19.967z" fill="#231F20"/><path d="M1058.57 48.337c0-12.608-7.91-22.834-17.66-22.834-3.15 0-6.1 1.07-8.66 2.927a5.436 5.436 0 01-6.45 0c-2.56-1.867-5.52-2.927-8.67-2.927-9.75 0-17.661 10.226-17.661 22.834 0 6.531 2.121 12.416 5.531 16.575 4.55 6.189 13.6 10.398 24.02 10.398 10.43 0 19.47-4.22 24.03-10.398 3.4-4.159 5.52-10.044 5.52-16.575z" fill="#E52226"/><path d="M1125.15 33.508h-4.93l-.68-19.967h6.29l-.68 19.967z" fill="#231F20"/><path d="M1152.24 48.337c0-12.608-7.91-22.834-17.66-22.834-3.15 0-6.11 1.07-8.66 2.927a5.436 5.436 0 01-6.45 0c-2.56-1.867-5.52-2.927-8.67-2.927-9.75 0-17.66 10.226-17.66 22.834 0 6.531 2.12 12.416 5.53 16.575 4.55 6.189 13.6 10.398 24.02 10.398 10.43 0 19.47-4.22 24.03-10.398 3.39-4.159 5.52-10.044 5.52-16.575z" fill="#E52226"/><path d="M1218.81 33.508h-4.92l-.69-19.967h6.3l-.69 19.967z" fill="#231F20"/><path d="M1245.9 48.337c0-12.608-7.91-22.834-17.66-22.834-3.15 0-6.11 1.07-8.66 2.927a5.436 5.436 0 01-6.45 0c-2.56-1.867-5.52-2.927-8.67-2.927-9.75 0-17.66 10.226-17.66 22.834 0 6.531 2.13 12.416 5.53 16.575 4.55 6.189 13.6 10.398 24.02 10.398 10.43 0 19.48-4.22 24.03-10.398 3.4-4.159 5.52-10.044 5.52-16.575z" fill="#E52226"/><path d="M1312.48 33.508h-4.92l-.69-19.967h6.29l-.68 19.967z" fill="#231F20"/><path d="M1339.57 48.337c0-12.608-7.91-22.834-17.66-22.834-3.15 0-6.1 1.07-8.66 2.927a5.436 5.436 0 01-6.45 0c-2.56-1.867-5.52-2.927-8.67-2.927-9.75 0-17.66 10.226-17.66 22.834 0 6.531 2.12 12.416 5.53 16.575 4.55 6.189 13.6 10.398 24.02 10.398 10.43 0 19.47-4.22 24.03-10.398 3.39-4.159 5.52-10.044 5.52-16.575z" fill="#E52226"/><path d="M1723 0h-369v85h369V0z" fill="#F7C4BA"/><path d="M1400.48 33.508h-4.92l-.69-19.967h6.3l-.69 19.967z" fill="#231F20"/><path d="M1427.57 48.337c0-12.608-7.91-22.834-17.66-22.834-3.15 0-6.1 1.07-8.66 2.927a5.436 5.436 0 01-6.45 0c-2.56-1.867-5.52-2.927-8.67-2.927-9.75 0-17.66 10.226-17.66 22.834 0 6.531 2.12 12.416 5.53 16.575 4.55 6.189 13.6 10.398 24.02 10.398 10.43 0 19.47-4.22 24.03-10.398 3.4-4.159 5.52-10.044 5.52-16.575z" fill="#E52226"/><path d="M1494.15 33.508h-4.93l-.68-19.967h6.29l-.68 19.967z" fill="#231F20"/><path d="M1521.24 48.337c0-12.608-7.91-22.834-17.66-22.834-3.15 0-6.11 1.07-8.66 2.927a5.436 5.436 0 01-6.45 0c-2.56-1.867-5.52-2.927-8.67-2.927-9.75 0-17.66 10.226-17.66 22.834 0 6.531 2.12 12.416 5.53 16.575 4.55 6.189 13.6 10.398 24.02 10.398 10.43 0 19.47-4.22 24.03-10.398 3.39-4.159 5.52-10.044 5.52-16.575z" fill="#E52226"/><path d="M1587.81 33.508h-4.92l-.69-19.967h6.3l-.69 19.967z" fill="#231F20"/><path d="M1614.9 48.337c0-12.608-7.91-22.834-17.66-22.834-3.15 0-6.11 1.07-8.66 2.927a5.436 5.436 0 01-6.45 0c-2.56-1.867-5.52-2.927-8.67-2.927-9.75 0-17.66 10.226-17.66 22.834 0 6.531 2.13 12.416 5.53 16.575 4.55 6.189 13.6 10.398 24.02 10.398 10.43 0 19.48-4.22 24.03-10.398 3.4-4.159 5.52-10.044 5.52-16.575z" fill="#E52226"/></svg>
